X:379
T:Hills of Alva, The 
C:Joe Buchanan's Scottish Tome - Page 043.0
I:043 0
R:March
Z:Carl Allison
L:1/8
M:2/4
K:D
A | "D" f2 fa "A7" g2 e>f | ge Ae "D" d2 A2 | "G" B<d GB "D" A2 a2 | "Em" g>fed "A7" dcBA |
"D" f2 fa "A7" g2 e>f | g>eAe "D" d2 A2 | "G" B>dgB "D" Aa"F#m"a>g | "Em" fe"A7"aA "D" d2 :|
A | "D" a2 a>gfd A2 | A>Bdf "A7" e2 A2 | g2 g>fec A2 | "Em" g>f"E7"ed "A7" dcBA |
"D" a2 a>gfd A2 | A>Bdf "A7" e2 A2 | "G" B>d"Em"gB "D" Aa"F#m"a>g | "Em" ge"E7"aA "D" d2 :|
f | "D" A>B A2 d>e "Bm" d2 | "F#7" f>gfe "Bm" d2 "D7" A2 | "G" B>dgB "D" A>d f2 | "Em" g>f"E7"ed "A7" dcBA |
"D" A>B A2 d>e "Bm" d2 | "F#m"f>gfe "Bm" d2 "D7" A2 | "G" B>dgB "D" Aa"B7"a>g | "Em" fe"A7"aA "D" d2 :|
f | "D" a>f"A7"ge "Bm" df "F#m" A2 | "D" A>B"Bm"ed "G" B2 "D" A2 | "A7" g>feA ce a2 | "Em" g>f"E7"ed "A7"dcBA |
"D" a>f"A7"ge "Bm" df "F#m" A2 | "D" A>B"Bm"ed "G" B2 "D" A2 | "G" G>d"Em"gB "D" Aa"B7"a>g | "Em"fe"A7"aA "D" d2 :|

